X:5551
T: Rid\'ee
O:england
T: Bannielou Lambaol
R:
B:
D:
M: 2/4
L: 1/8
K: F
[| "C7"CC DE | "F"F2 F2 \
| "C7"CC DE | "F"F4 \
| "Dm"AG AG | "Bb"FD D2 \
| "C7"CG GE | "F"F2 F2 ||
|| "F"CF FF | "C7"GF/E/ "F"FF \
| CF FF | "C7"GF/E/ "F"F2 \
| A2Ac | "Bb"cB AG \
| "C7"GB AG | "F"F2 F2 | z2 |]
%%sep 5 5 200
K: G
[| "D7"DD EF | "G"G2 G2 \
| "D7"DD EF | "G"G4 \
| "Em"BA BA | "C"GE E2 \
| "D7"DA AF | "G"G2 G2 ||
|| "G"DG GG | "D7"AG/F/ "G"GG \
| DG GG | "D7"AG/F/ "G"G2 \
| B2Bd | "C"dc BA \
| "D7"Ac BA | "G"G2 G2 | z2 |]
%%sep 5 5 200


